packages/icons/svg/Fill/arrow-circle-down.svg

<svg width="24" height="24" viewBox="0 0 24 24" fill="none" xmlns="http://www.w3.org/2000/svg">
<g id="Icon/Fill/arrow-circle-down">
<path id="Mask" fill-rule="evenodd" clip-rule="evenodd" d="M15.6905 13.8613L12.6905 16.7233C12.6455 16.7663 12.5895 16.7873 12.5395 16.8203C12.4855 16.8563 12.4375 16.8993 12.3775 16.9243C12.2565 16.9733 12.1285 17.0003 12.0005 17.0003C11.8695 17.0003 11.7395 16.9733 11.6175 16.9233C11.4955 16.8723 11.3845 16.7993 11.2925 16.7063L8.29349 13.7073C7.90249 13.3163 7.90249 12.6833 8.29349 12.2933C8.68349 11.9023 9.31649 11.9023 9.70749 12.2933L11.0005 13.5863V8.00031C11.0005 7.44731 11.4475 7.00031 12.0005 7.00031C12.5525 7.00031 13.0005 7.44731 13.0005 8.00031V13.6633L14.3095 12.4143C14.7095 12.0333 15.3415 12.0473 15.7235 12.4473C16.1055 12.8473 16.0895 13.4803 15.6905 13.8613ZM12.0005 2.00031C6.48549 2.00031 2.00049 6.48631 2.00049 12.0003C2.00049 17.5143 6.48549 22.0003 12.0005 22.0003C17.5145 22.0003 22.0005 17.5143 22.0005 12.0003C22.0005 6.48631 17.5145 2.00031 12.0005 2.00031Z" fill="#000000"/>
</g>
</svg>

<svg fill="none" height="24" viewBox="0 0 24 24" width="24" xmlns="http://www.w3.org/2000/svg"><path clip-rule="evenodd" d="m15.6904 13.8613-3 2.862c-.045.043-.101.064-.151.097-.054.036-.102.079-.162.104-.121.049-.249.076-.377.076-.131 0-.261-.027-.383-.077-.122-.051-.233-.124-.325-.217l-2.99901-2.999c-.391-.391-.391-1.024 0-1.414.39-.391 1.023-.391 1.414 0l1.29301 1.293v-5.58599c0-.553.447-1 1-1 .552 0 1 .447 1 1v5.66299l1.309-1.249c.4-.381 1.032-.367 1.414.033s.366 1.033-.033 1.414zm-3.69-11.86106c-5.515 0-10 4.486-10 9.99996 0 5.514 4.485 10 10 10 5.514 0 10-4.486 10-10 0-5.51396-4.486-9.99996-10-9.99996z" fill="#6b7280" fill-rule="evenodd"/></svg>
